X:1
T:Cum Rex magnus
T:Cum Rex magnus
T:Johannes Van der Wielen
C:Johannes Van der Wielen
%%score [ 1 2 3 ] { 4 | 5 }
L:1/8
Q:1/4=120
M:4/4
K:F
V:1 treble nm="Soprano" snm="S"
V:2 treble nm="Alto" snm="A"
V:3 treble-8 nm="Tenor" snm="T"
V:4 treble nm="BC" snm="Pno."
V:5 bass 
V:1
"^Source: Cantiones Natalitiae---Antverpia---haeredes P.Phalesii.1665\nEditor: André Vierendeels (20/06/76)""^Basso continuo: AndréVierendeels" z2 A/B/c d/c/ B/A/ G>c | %1
w: Cum _ Rex magnus _ _ _ es- set|
w: Tri- * a bo- * na _ Ma- gi|
w: Stel- * la stan- * te _ de- mon-|
 AFGA B/A/ G/F/ E>F | F2 cc cG A/B/c | AFGA B c/B/ A>G |"^6" G8 :: z2 DE CF G/A/ B/c/ | %6
w: A- gnus in- di- gens _ so- * la- ti|o, na- tus ho- mo non _ in|do- mo, cas- tro nel pa- * la- ti-|o,|mox- am- bi- vit et- _ quae- *|
w: do- na gra- vi- da- _ mys- * te- ri-|o, se- cum fe- runt re- * gem|quae- runt pi- o de- si _ de- ri-|o,|stel- lam du- cem no- * vam _|
w: stran- te re- gisal- * * mi _ cu- ri-|am, De- um ve- rum in- * ter|re- rum om- ni- um pe- * nu- ri-|am,|cer- nunt flen- tem pa- * ti- *|
 AF c/A/ B/c/ d/c/ B/A/ G>G | F2 c/A/ B/c/ d/c/ B/A/ G>F |"^6" F8 || z2 A/B/c d/c/ B/A/ G>c | %10
w: si- vit hunc- * gen- * ti- * lis _ na- ti-|o,- hunc _ gen- * ti- * lis _ na- ti-|o.|Cum _ Rex ma- * gnus _ es- set|
w: lu- cem pro- * se- * quun- * tur _ se- ri-|o, pro- * se- * quun- * tur _ se- ri-|o.||
w: en- tem fri- * go- * ris _ in- * ju- ri-|am, fri- * go- * ris _ in- * ju- ri-|am.||
 AFGA B/A/ G/F/ E>F | F2 cc cG A/B/c | AFGA B c/B/ A>G | G8 | z2 A/B/c d/c/ B/A/ G>c | %15
w: A- gnus in- di- gens _ so- * la- ti-|o, na- tus ho- mo non _ in|do- mo, ca- tro vel pa- * la- ti-|o,|cum _ Rex ma- * gnus _ es- set|
w: |||||
w: |||||
 AFGA B/A/ G/F/ E>F | F2 cc cG A/B/c | AFGA B c/B/ A>G | G8 | z2 DE CF G/A/ B/c/ | %20
w: A- gnus in- di- gens _ so- * la- ti-|o, na- tus ho- mo non _ in|do- mo, cas- tro vel pa- * la- ti-|o,|mox am- bi- vit et _ quae _|
w: |||||
w: |||||
 AF c/A/ B/c/ d/c/ B/A/ G>F | F2 c/A/ B/c/ d/c/ B/A/ G>F | F4 z4 | z2 DE CF G/A/ B/c/ | %24
w: si- vit hunc- _ genti _ _ _ lis _ na- ti-|o, hunc- _ gen _ ti- * lis _ na- ti-|o,|mox am- bi- vit et _ quae- *|
w: ||||
w: ||||
 AF c/A/ B/c/ d/c/ B/A/ G>F | F2 c/A/ B/c/ d/c/ B/A/ G>F | F8 |] %27
w: si- vit- hunc- _ gen- * ti _ lis _ na- ti-|o, hunc- _ gen- * ti- * lis _ na- ti-|o.|
w: |||
w: |||
V:2
 z8 | z8 | z8 | z8 | z8 :: z8 | z8 | z8 | z8 || z2 F/G/A B/A/ G/F/ E>G | FFBc d/c/ B/A/ G>F | %11
w: |||||||||Cum _ Rex ma- * gnus _ es- set|A- gnus in di- gen _ so- * la- ti-|
 F2 AA GGFE | FF EF G A/G/ F>E | E8 | z2 F/G/A B/A/ G/F/ E>G | FFBc d/c/ B/A/ G>F | F2 AA GGFE | %17
w: o, na- tus ho- mo non in|do- mo, cas- tro vel pa- * la- ti-|o,|cum _ Rex ma- * gnus _ es- set|A- gnus in- di- gen _ so- * la- ti-|o, na- tus ho- mo non in|
 FFEF G A/G/ F>E | E8 | z2 GG FF E/F/ G/A/ | FF A/F/ G/A/ B/A/ G/F/ E>F | %21
w: do- mo, cas- tro vel pa- * la- ti-|o,|mox am- bi- vit et _ quae _|si- vit hunc _ gen- * ti- * lis- * na- ti-|
 F2 A/F/ G/A/ B/A/ G/F/ E>F | F4 z4 | z2 GG FF E/F/ G/A/ | FF A/F/ G/A/ B/A/ G/F/ E>F | %25
w: o,- hunc- _ gen _ ti- * lis _ na- ti-|o.-|mox am- bi- vit et _ quae- *|si- vit hunc- _ gen- * ti- * lis _ na- ti-|
 F2 A/F/ G/A/ B/A/ G/F/ E>F | F8 |] %27
w: o, hunc _ gen- * ti- lis _ _ na- ti-|o.|
V:3
 z8 | z8 | z8 | z8 | z8 :: z8 | z8 | z8 | z8 || z2 FF BB c>c | dddF B B/c/ c>F | F2 FF EEFC | %12
w: |||||||||Cum Rex ma- gnus es- set|A- gnus in di- gen so _ la- ti-|o, na- tus ho- mo non in|
 FFcc GE F>F | c8 | z2 FF BB c>G | ddGG BB c>F | F2 FF EEFC | FFcc GE F>c | c8 | z2 GE FD C>F | %20
w: do- mo, cas- tro vel pa- la- ti-|o,|cum Rex ma- gnus es- set|A- gnus in- di- gens so- la- ti-|o, na- tus ho- mo non in|do- mo, cas- tro vel pa- la- ti-|o,-|* am- bi- vit et quae-|
 FFFF BB c>F | F2 FF FB c>[B,F] | F4 z4 | z2 GE FD C>F | FFFF BB c>F | F2 FF BB c>c | F8 |] %27
w: si- vit hunc gen- ti- lis na- ti-|o, hunc gen- ti- lis na- ti-|o,|mox am- bi- vit et quae-|si- vit hunc gen- ti- lis na- ti-|o, hunc gen- ti- lis na- ti-|o.|
V:4
 [FAc]4 [GB]2 [EGc]2 | [FAd]2 [EGB][FA] [DFB]2 [CEG]2 | [FAc]4 [Gc]2 [FAc][EGc] | %3
 [FAc]2 [EGc]2 [GB][Gc] [FAc]2 | [EGc]8 :: z2 [GB][Gc] [FAc][FB] [EGc]2 | [FAc]4 [DFB]2 [EGc]2 | %7
 [DFA]2 [EAc]2 [FB]2 [EGc]2 | [FAc]8 || z2 [FAc]2 [DFB]2 [EGc]2 | %10
 [DFA]2 [B,EG][CFA] [DFB]2 [EGc]2 | [FAc]4 [Gc]2 [FAc][EGc] | [FAc]2 [EGc]2 [EG][Gc] [FAc]2 | %13
 [EGc]8 | z2 [FAc]2 [DFB]2 [EGc]2 | [DFA]2 [B,EG][CFA] [DFB]2 [EGc]2 | [EAc]4 [Gc]2 [FAc][EGc] | %17
 [FAc]2 [EGc]2 [GB][Gc] [FAc]2 | [EGc]8 | z2 [GB][Gc] [FAc][FB] [EGc]2 | [FAc]4 [DFB]2 [EGc]2 | %21
 [FAc]4 [DFB]2 [EGc]2 | [FAc]4 z4 | [GB]3 [Gc] [FAc][FB] [EGc]2 | [FAc]4 [DFB]2 [EGc]2 | %25
 [FAc]4 [DFB]2 [EGc]2 | [FAc]8 |] %27
V:5
 F,,2 F,2 B,,2 C,2 | D,2 G,,F,, B,,2 C,2 |"^6" F,,2 F,2 E,2 F,C, |"^6" F,2 C,2 G,,E,, F,,2 | C,8 :: %5
"^6" z2 G,,E,, F,,D,, C,,2 | F,,2 F,2 B,,2"^REPRISE TRIUM VOCUM" C,2 | D,2 A,,2 B,,2 C,2 | F,,8 || %9
 z2 F,,2 B,,2 C,2 |"^6" D,2 G,,F,, B,,2 C,2 |"^6" F,,4 E,,2 F,,C,, |"^6" F,,2 C,2 G,,E,, F,,2 | %13
"^6" C,8 | z2 F,,2 B,,2 C,2 | D,2 G,,F,, B,,2 C,2 | F,,4 E,,2 F,,C,, | F,,2 C,2 G,,E,, F,,2 | C,8 | %19
"^6""^6" z2 G,,E,, F,,D,, C,,>C,, | F,,2 F,,2 B,,2 C,2 | F,,4 B,,2 C,2 | %22
 F,,E,,F,,G,, A,,G,,A,,F,, | %23
"^original keys: Sol, Sol, Ut 2nd, Fa 4rth""^Notes:  transposed in subdiapente" G,,3 E,,"^BC noted in F major, the voices in C major, in the original print" F,,D,, C,,2 | %24
 F,,2 F,,2 B,,2 C,2 | F,,2 F,,2 B,,2 C,2 | F,,8 |] %27

